X: 38917
T: Superfly
R: reel
M: 4/4
K: Bminor
|:Bfff gfeg|~f3g fedf|~e3f edcd|ed (3cBA BAFA|
Bfff gfeg|~f3g fedf|efdf edcd|ed (3cBA B2BA:|
|:Bcde ffBc|defd g2Bc|defd a2 fa|gfed ed (3cBA|
Bcde ffBc|de (3fed g2Bc|defd a2 fa|gfed ed (3cBA:|

